X:502
T:Virgin Queen,The. (p)1702.PLFD.502
M:9/4
L:1/4
Q:3/4=120
S:Playford, Dancing Master,Supp.to 11th Ed.,1702.
O:England
Z:Chris Partington.
K:C
(cB)A(AE)A(AE)A|(cB)A(AE)A(BG)B|
(cB)A(AE)A(AE)A|B2G(GB)G(BG)B:|
|:c>decBA(AE)A|c>decd/c/B/A/BGB|
c>decBAAEA|B>cdB/c/d/c/B/A/BGB:|
